X:1
T:Let the Blessèd Sunlight In
T:Let the Blessèd Sunlight In
T:A. F. Myers
T:A. F. Myers, 1897
T:Public Domain Courtesy of the Cyber Hymnal™
C:A. F. Myers
Z:Public Domain
Z:Courtesy of the Cyber Hymnal™
%%score ( 1 2 ) ( 3 4 )
L:1/8
Q:1/4=110
M:4/4
K:Db
V:1 treble 
V:2 treble 
V:3 bass 
V:4 bass 
V:1
 D2 [DF]2 [FA]2 [Ad]2 | [GB]2 [Gd]2 [FA]4 | [FA]>[FA] [FA]>[FA] [Fd]2 [Fd]2 | [Gc]6 z2 | %4
w: 1.~Would you al- ways|cheer- ful be?|Let the bless- èd sun- light|in;|
w: 2.~Would you bright- en|drear- y days?|Let the bless- èd sun- light|in;|
w: 3.~Would you ease a|bur- dened heart?|Let the bless- èd sun- light|in;|
w: 4.~Would you speed the|truth a- broad?|Let the bless- èd sun- light|in;|
 D2 [DF]2 [FA]2 [Ad]2 | [GB]2 [Gd]2 [FA]4 | [Fd]>[Fd] [Fd]>[Fd] [Ge]2 [Gc]2 | [Fd]6 z2 || %8
w: Would you bid the|dark- ness flee,|Let the bless- èd sun- light|in.|
w: Would you fill your|heart with praise,|Let the bless- èd sun- light|in.|
w: Would you joy and|strength im- part,|Let the bless- èd sun- light|in.|
w: Would you bring the|world to God,|Let the bless- èd sun- light|in.|
"^Refrain" [FA]>[FA] [FA]>[FA] [GB]2 [FA]2 | (F2 G2 F2) z2 | [Gc]>[Gc] [Gc]>[Gc] [GB]2 [GA]2 | %11
w: |||
w: Let the bless- èd sun- light|in, * *|Let the bless- èd sun- light|
w: |||
w: |||
 d6 z2 | [Fd]>[Ad] [=Gd]>[_Gd] [Fd]2 [Ad]2 | [GB]>[GB] [AB]>[AB] [=Ge]2 [Gd]2 | %14
w: |||
w: in!|Would you ne- ver wear- y,|When the days are drear- y,|
w: |||
w: |||
 [Gc]>[Gc] [Gc]>[Gc] [GB]2 [GA]2 | d6 |] %16
w: ||
w: Let the bless- èd sun- light|in!|
w: ||
w: ||
V:2
 D2 x6 | x8 | x8 | x8 | D2 x6 | x8 | x8 | x8 || x8 | D6 x2 | x8 | (F2 G2 F2) x2 | x8 | x8 | x8 | %15
 (F2 G2 F2) |] %16
V:3
 [D,F,]2 [D,A,]2 [D,D]2 [F,D]2 | [G,D]2 [B,,D]2 [D,D]4 | [D,D]>[D,D] [D,D]>[D,D] [D,A,]2 [D,A,]2 | %3
w: ~ ~ ~ ~|~ ~ ~|~ ~ ~ ~ ~ ~|
 A,6 z2 | [D,F,]2 [D,A,]2 [D,D]2 [F,D]2 | [G,D]2 [B,,D]2 [D,D]4 | %6
w: ~|~ ~ ~ ~|~ ~ ~|
 [D,A,]>[D,A,] [D,A,]>[D,A,] [A,,C]2 [A,,A,]2 | [D,A,]6 z2 || %8
w: ~ ~ ~ ~ ~ ~|~|
 [D,D]>[D,D] [D,D]>[D,D] [D,D]2 [D,D]2 | A,2 B,2 A,2 z2 | %10
w: ~ ~ ~ ~ ~ ~|sun- light in!|
 [A,,E]>[A,,E] [A,,E]>[A,,E] [A,C]2 [A,C]2 | D2 B,2 A,2 z2 | %12
w: ~ ~ ~ ~ ~ ~|sun- light in!|
 [D,A,]>[D,_C] [D,B,]>[D,=A,] [D,_A,]2 [F,D]2 | [E,D]>[E,D] [D,=B,]>[D,B,] [C,E]2 [C,E]2 | %14
w: ~ ~ ~ ~ ~ ~|~ ~ ~ ~ ~ ~|
 [A,E]>[A,E] [A,E]>[A,E] [A,C]2 [A,C]2 | A,2 B,2 A,2 |] %16
w: ~ ~ ~ ~ ~ ~|sun- light in!|
V:4
 x8 | x8 | x8 | A,6 x2 | x8 | x8 | x8 | x8 || x8 | D,6 x2 | x8 | D,6 x2 | x8 | x8 | x8 | D,6 |] %16

